X:1
T:Title
%%score { ( 1 2 ) | ( 3 4 ) }
L:1/8
Q:1/4=100
M:4/4
K:Ab
V:1 treble nm="Grand Piano"
V:2 treble 
V:3 bass 
V:4 bass 
V:1
 [Ec]2 [Ec]2 [A,CA]2 D->[DF] | [A,CE]2 [E,CE]2 [A,CE]2 [_G,CE]2 | [G,DE]2 [G,DE]2 [G,DE]2 [G,DE]2 | %3
w: W.~A.~Post * * * *|||
 [A,CE]2 [F,CE]2 .[G,DE]2 z2 | [Ec]2 [Ec]2 [A,CA]2 D->[DF] | %5
w: ||
 [A,CE]2 [E,CE]2[K:treble] [A,CE]2 [CEF]2 | [EG]2 [EG]2 G2 =D2 | B6 z2 | %8
w: |||
 [B,GB]2 [EB]2 [=DB]2 [DB]2 | E6 z2 | d2 d2 d>c B2 | z4 c2 z2 | [=DB]2 [Dc]2 [DB]2 F2 | %13
w: |||||
 B2 B2 B2 c2 | d2 d2 d>c [EB]2 | z4 e2 z2 | z4 B2 B2 | [CA]6 z2 |] %18
w: |||||
V:2
 z4 z2 [F,G]2 | x8 | x8 | x8 | z4 z2 [F,G]2 | x4[K:treble] x4 | x8 | z2 =D2 E2 G>A | x8 | x8 | x8 | %11
 [Ec]2 [Ec]2 E->[EB] [EA]2 | x8 | x8 | x8 | [Ee]2 [_Ge]2 F->[Fd] [FB]2 | c2 c2 z z/ G,/ z z/ G,/ | %17
 x8 |] %18
V:3
 [A,,A,]2 [A,,E,]2 z z/ E,/ z z/ A,/ | A,,2 A,,2 z z/ F/ =A,,2 | B,,2 E,2 z z/ F/ E,2 | %3
 A,,2 =A,,2 (3z[K:treble] E-[EF] (3GAB | [A,,A,]2 [A,,E,]2 z z/ E,/ z z/ A,/ | %5
 A,,2 A,,2 A,,2 =A,,2 | [B,,B,]2 [B,,B,]2 [B,=D]2 [A,B,]2 | [G,B,E]2 [F,A,]2 [E,G,]2 E>F | %8
 B,,2 [B,,G,]2 [B,,F,]2 [B,,A,]2 | [E,G,]6 z2 | z4 B,2 z2 | %11
 [A,,A,]2 [A,,A,]2 [A,,A,]>[B,,G,] [C,A,]2 | [B,,A,]2 [B,,A,]2 [B,,A,]2 [A,B,=D]2 | %13
 [G,B,E]2 [F,A,=D]2 G,2 A,2 | z4 B,2 z2 | [C,A,]2 [C,A,]2 [D,A,]2 [D,A,]2 | %16
 [E,A,E]2 [E,A,E]2 [E,A,D]2 [E,F,D]2 | [A,,A,]6 z2 |] %18
V:4
 z4 A,,2 A,,2 | z4 A,,2 z2 | z4 B,,2 z2 | z4 B,,2[K:treble] z2 | z4 A,,2 A,,2 | x8 | x8 | %7
 z4 z2 [E,B,]2 | x8 | x8 | [E,B,E]2 [E,B,E]2 [E,E]->[E,A,E] [E,G,E]2 | x8 | x8 | z4 [E,E]4 | %14
 [E,B,E]2 [E,B,E]2 [E,E]->[E,A,E] [D,G,]2 | x8 | x8 | x8 |] %18

